img/service-size-icon__08.svg

<svg width="15" height="25" viewBox="0 0 15 25" fill="none" xmlns="http://www.w3.org/2000/svg">
<path d="M14.7505 22.262C14.7406 21.9925 14.5144 21.7819 14.2447 21.792C13.9752 21.8019 13.7648 22.0284 13.7747 22.2979L13.8302 23.8121L10.6207 23.9985L7.98822 7.25803V6.73389C9.10116 6.50711 9.94135 5.52044 9.94135 4.34151V2.97394H10.5404C10.9807 3.9093 11.9034 4.83894 13.1774 5.62859L13.6132 17.9056C13.6225 18.1692 13.8392 18.3767 14.1009 18.3767C14.1068 18.3767 14.1127 18.3765 14.1184 18.3764C14.3879 18.3668 14.5987 18.1406 14.5892 17.8711L14.0425 2.47707V0.488281C14.0425 0.218582 13.8239 0 13.5542 0H6.81673C6.54703 0 6.32845 0.218582 6.32845 0.488281C6.32845 0.75798 6.54703 0.976562 6.81673 0.976562H8.96478V1.99738H1.93391V0.976562H2.4222C2.6919 0.976562 2.91048 0.75798 2.91048 0.488281C2.91048 0.218582 2.6919 0 2.4222 0H1.44563C1.17593 0 0.957352 0.218582 0.957352 0.488281V2.47669L0.176102 24.2544C0.166566 24.5197 0.370652 24.744 0.635773 24.7593L4.76442 24.999C5.01562 25.0149 5.23611 24.8356 5.27502 24.5874L7.49994 10.4395L9.72486 24.5874C9.76244 24.826 9.96805 24.9998 10.2068 24.9998C10.2164 24.9998 10.2259 24.9996 10.2355 24.999L14.3641 24.7593C14.6292 24.744 14.8335 24.5193 14.8238 24.2538L14.7505 22.262ZM11.6593 2.97394H13.0831L13.1346 4.42696C12.4905 3.9629 11.9883 3.46832 11.6593 2.97394ZM9.94135 0.976562H13.066V1.99738H9.94135V0.976562ZM8.96478 4.34151C8.96478 4.97818 8.55661 5.5212 7.98822 5.72281V2.97394H8.96478V4.34151ZM3.33658 2.97394C3.00489 3.46642 2.50002 3.96442 1.86468 4.42543L1.91675 2.97394H3.33658ZM4.37914 23.9985L1.16907 23.8121L1.82138 5.62935C3.09301 4.84123 4.01579 3.9114 4.45905 2.97394H7.01166V7.25803L4.37914 23.9985Z" fill="black"/>
<path d="M14.1492 19.5968C13.88 19.6136 13.6756 19.8457 13.6924 20.1148C13.7086 20.3734 13.9235 20.5726 14.1793 20.5726C14.1896 20.5726 14.1999 20.5722 14.2102 20.5716C14.4793 20.5546 14.6838 20.3229 14.667 20.0538C14.6502 19.7846 14.4191 19.579 14.1492 19.5968Z" fill="black"/>
<path d="M4.62109 0.976562C4.89079 0.976562 5.10957 0.75798 5.10957 0.488281C5.10957 0.218582 4.89079 0 4.62109 0C4.35139 0 4.13281 0.218582 4.13281 0.488281C4.13281 0.75798 4.35139 0.976562 4.62109 0.976562Z" fill="black"/>
</svg>

<svg width="15" height="25" fill="none" xmlns="http://www.w3.org/2000/svg"><path d="M14.75 22.262a.488.488 0 10-.975.036l.055 1.514-3.21.186-2.632-16.74v-.524a2.446 2.446 0 001.953-2.392V2.974h.6c.44.935 1.362 1.865 2.636 2.655l.436 12.277c.01.263.226.47.488.47h.017c.27-.01.48-.235.471-.505l-.546-15.394V.488a.488.488 0 00-.49-.488H6.817a.488.488 0 100 .977h2.148v1.02H1.934V.977h.488a.488.488 0 100-.977h-.976a.488.488 0 00-.489.488v1.989l-.78 21.777c-.01.266.194.49.459.505l4.128.24a.487.487 0 00.511-.412L7.5 10.44l2.225 14.147a.488.488 0 00.51.412l4.13-.24a.488.488 0 00.459-.505l-.073-1.992zM11.66 2.974h1.423l.052 1.453c-.644-.464-1.147-.959-1.476-1.453zM9.94.977h3.125v1.02H9.941V.977zm-.976 3.365c0 .636-.408 1.18-.977 1.38V2.975h.977v1.368zM3.337 2.974c-.332.492-.837.99-1.472 1.451l.052-1.451h1.42zm1.042 21.024l-3.21-.186.652-18.183c1.272-.788 2.195-1.718 2.638-2.655h2.553v4.284l-2.633 16.74z" fill="#000"/><path d="M14.15 19.597a.488.488 0 10.06.975.488.488 0 00-.06-.975zM4.621.977a.488.488 0 100-.977.488.488 0 000 .977z" fill="#000"/></svg>
